X:4
T:Ba-ba my Baby
T:Bab\`a mo leanabh
R:Slow Air
S:Simon Fraser Collection
N:No.79
O:Scottish
M:6/8
L:1/8
Q:3/8=70
K:D Minor
F/G/|A2d d>ef|A2G F2 z/F/4G/4|AAA fed|c<A~c d2 d/e/|f>ef g2B|
A>BG A<F z/F/4G/4|A>Bc B<Gc|A2F G2||
|:A|f>ef g2^g|a>ba/^g/ a2 z/A/|
f>ef g2^g|a>ba/^g/ a2 z/a/4=g/4|f>ef g2 z/B/|A>BA A<F z/F/4G/4|
A>Bc B<Gc|A2F G2:|

